X: 08039
T: FITZWILLIAM POLKA
C: Bob McQuillen 31 Aug 90
B: Bob's Note Book 8 #39
%R: polka, march
Z: 2021 John Chambers <jc:trillian.mit.edu>
M: C
L: 1/8
K: D	% and A
AA \
| F2A2 d2e2 | f2d2 A2F2 | G2B2 ABAG | F2E2 E2AA |\
| F2A2 d2e2 | f2d2 A2F2 | G2B2 A2Bc | d2D2 D2 :|
K: A
|: cd \
| e4 e4 | efed c2e2 | dedc Bcde | f2e2 e2cd |\
| e2cd e2cd | efed c2A2 | dcBA GABd | c2A2 A2 :|
%%begintext align
%% Would you believe that I played
%% in Fitzwilliam (N.H.) Town Hall
%% for Duke Miller, the great caller,
%% every sumer for 26 consecutive
%% yers? Well, I did! No wonder I hate
%% "Life on the Ocean Wave"! Duke called
%% that tune "Mac's Favorite"! (I was "Mac".)
%%endtext

%%sep 1 1 500

%%sep 1 1 500

